X:1
T: Hatton of Buchromb's Reel
C:William Marshall
R:Reel
Q: 232
K:Fm
M:4/4
L:1/8
|:=E|Ff f=d eE GB|Ff fe c=d ef|ge f=d eE GB|cA BG F2 F=E|
Ff f=d eE GB|Ff fe c=d ef|ge f=d eE GB|cA BG F2 Fg|
af cf eE Gg|af cf =ef cf|c=d ef gE GB|cA BG F2 Fg|
af cf eE Gg|af cf =ef cf|ga bg eE GB|cA BG F2 F:|
